img/icons/services/dog_grooming_24x.svg

<svg width="63" height="63" viewBox="0 0 63 63" fill="none" xmlns="http://www.w3.org/2000/svg">
<path d="M27.5625 21.6562L21.6562 27.5625C21.4803 27.4751 21.3097 27.3804 21.1444 27.2783C20.1658 26.6843 19.3449 25.8632 18.7511 24.8845C18.1574 23.9059 17.8083 22.7985 17.7335 21.6562C17.7237 21.5024 17.7188 21.3474 17.7188 21.1911V18.7031H23.625L27.5625 21.6562Z" fill="#F3AF3E"/>
<path d="M25.5936 24.6094L23.1327 26.0859L21.1443 27.2783C20.1657 26.6843 19.3448 25.8632 18.751 24.8845C18.1573 23.9059 17.8082 22.7985 17.7334 21.6562H22.7303L25.1088 24.1098L25.5936 24.6094Z" fill="#5B3726"/>
<path d="M45.2812 18.7031V21.1911C45.2812 21.3474 45.2763 21.5024 45.2665 21.6562C45.1848 22.8974 44.7797 24.0956 44.0916 25.1317C43.4034 26.1678 42.4561 27.0059 41.3438 27.5625L35.4375 21.6562L39.375 18.7031H45.2812Z" fill="#F3AF3E"/>
<path d="M45.2665 21.6562C45.1968 22.7209 44.8889 23.7562 44.3654 24.6859C43.8419 25.6155 43.1162 26.4157 42.242 27.0272L39.375 25.5937L37.4062 24.6094L37.8911 24.1098L40.2695 21.6562H45.2665Z" fill="#5B3726"/>
<path d="M42.3281 29.5312V42.3281H20.6719V29.5312C20.6719 26.6595 21.8127 23.9053 23.8434 21.8746C25.874 19.8439 28.6282 18.7031 31.5 18.7031C34.3718 18.7031 37.126 19.8439 39.1566 21.8746C41.1873 23.9053 42.3281 26.6595 42.3281 29.5312V29.5312Z" fill="#F3AF3E"/>
<path d="M44.2969 3.9375L43.3125 7.875L54.1406 14.7656V41.3438H58.0781V12.7969L45.2812 4.26567L44.2969 3.9375Z" fill="#B9B9B9"/>
<path d="M58.0781 44.2969V50.2031C58.0781 52.8138 57.041 55.3176 55.195 57.1637C53.3489 59.0098 50.8451 60.0469 48.2344 60.0469H14.7656C12.1549 60.0469 9.6511 59.0098 7.80504 57.1637C5.95898 55.3176 4.92188 52.8138 4.92188 50.2031V44.2969H58.0781Z" fill="#5D62B5"/>
<path d="M58.0781 40.3594H4.92188C3.83456 40.3594 2.95312 41.2408 2.95312 42.3281C2.95312 43.4154 3.83456 44.2969 4.92188 44.2969H58.0781C59.1654 44.2969 60.0469 43.4154 60.0469 42.3281C60.0469 41.2408 59.1654 40.3594 58.0781 40.3594Z" fill="#5D62B5"/>
<path d="M42.6712 11.0572L38.2676 4.52814L41.0281 3.26814C41.7788 2.92547 42.6268 2.86022 43.4211 3.084C44.2154 3.30778 44.9045 3.80607 45.3659 4.49024C45.8273 5.17438 46.0311 6.00002 45.941 6.82028C45.8509 7.64054 45.4727 8.40224 44.8737 8.96988L42.6712 11.0572Z" fill="#CBCBCB"/>
<path d="M26.2686 25.6594L29.2227 24.6758L29.8448 26.5442L26.8907 27.5279L26.2686 25.6594Z" fill="#D18D28"/>
<path d="M33.1572 26.5115L33.7794 24.643L36.7335 25.6267L36.1113 27.4951L33.1572 26.5115Z" fill="#D18D28"/>
<path d="M37.6302 33.2608L36.7497 31.5C35.9696 31.8875 33.3192 34.0371 32.4846 33.7877V31.5H30.5159V33.7887C29.6812 34.0377 27.0298 31.8874 26.2497 31.5L25.3691 33.2608C26.0449 33.597 28.5369 35.8611 29.291 35.8943C30.045 35.9275 30.7976 35.8023 31.5003 35.5268C32.203 35.8022 32.9556 35.9273 33.7096 35.894C34.4636 35.8607 36.9545 33.5971 37.6302 33.2608Z" fill="#744630"/>
<path d="M23.625 39.375C23.6256 39.7206 23.5348 40.0602 23.3617 40.3594H20.6719V36.4219C21.4551 36.4219 22.2062 36.733 22.76 37.2868C23.3139 37.8406 23.625 38.5918 23.625 39.375Z" fill="#D18D28"/>
<path d="M42.3281 36.4219V40.3594H39.6383C39.4652 40.0602 39.3744 39.7206 39.375 39.375C39.375 38.5918 39.6861 37.8406 40.24 37.2868C40.7938 36.733 41.5449 36.4219 42.3281 36.4219Z" fill="#D18D28"/>
<path d="M28.5469 16.7346H26.5781C26.5775 15.6136 26.7722 14.5011 27.1535 13.447L29.0052 14.1159C28.7015 14.9555 28.5464 15.8417 28.5469 16.7346V16.7346Z" fill="#C0F5F9"/>
<path d="M29.9013 12.3699L28.2783 11.2553C29.0624 10.1102 30.0852 9.14842 31.2764 8.4362L31.9777 8.01538L32.9906 9.70358L32.2893 10.1244C31.3405 10.6917 30.5258 11.4578 29.9013 12.3699V12.3699Z" fill="#C0F5F9"/>
<path d="M33.4688 16.7346H31.5C31.4994 15.6136 31.6941 14.5011 32.0754 13.447L33.9271 14.1159C33.6234 14.9555 33.4683 15.8417 33.4688 16.7346V16.7346Z" fill="#C0F5F9"/>
<path d="M34.8232 12.3699L33.2002 11.2553C33.9843 10.1102 35.0071 9.14842 36.1982 8.4362L36.8996 8.01538L37.9125 9.70358L37.2112 10.1244C36.2624 10.6917 35.4477 11.4578 34.8232 12.3699V12.3699Z" fill="#C0F5F9"/>
<path d="M38.3907 16.7346H36.4219C36.4212 15.6136 36.6159 14.5011 36.9973 13.447L38.849 14.1159C38.5452 14.9555 38.3901 15.8417 38.3907 16.7346V16.7346Z" fill="#C0F5F9"/>
<path d="M9.84375 36.4219C12.0184 36.4219 13.7812 34.659 13.7812 32.4844C13.7812 30.3098 12.0184 28.5469 9.84375 28.5469C7.66913 28.5469 5.90625 30.3098 5.90625 32.4844C5.90625 34.659 7.66913 36.4219 9.84375 36.4219Z" fill="#B3E4E8"/>
<path d="M5.90625 25.5938C7.53722 25.5938 8.85938 24.2716 8.85938 22.6406C8.85938 21.0097 7.53722 19.6875 5.90625 19.6875C4.27528 19.6875 2.95312 21.0097 2.95312 22.6406C2.95312 24.2716 4.27528 25.5938 5.90625 25.5938Z" fill="#C0F5F9"/>
<path d="M48.2344 33.4688C49.3217 33.4688 50.2031 32.5873 50.2031 31.5C50.2031 30.4127 49.3217 29.5312 48.2344 29.5312C47.1471 29.5312 46.2656 30.4127 46.2656 31.5C46.2656 32.5873 47.1471 33.4688 48.2344 33.4688Z" fill="#C0F5F9"/>
<path d="M31.5 50.8184C31.8481 50.8184 32.1819 50.693 32.4281 50.47C32.6742 50.2469 32.8125 49.9444 32.8125 49.6289V48.4395C32.8125 48.124 32.6742 47.8214 32.4281 47.5984C32.1819 47.3753 31.8481 47.25 31.5 47.25C31.1519 47.25 30.8181 47.3753 30.5719 47.5984C30.3258 47.8214 30.1875 48.124 30.1875 48.4395V49.6289C30.1875 49.9444 30.3258 50.2469 30.5719 50.47C30.8181 50.693 31.1519 50.8184 31.5 50.8184Z" fill="#29C3BE"/>
<path d="M28.875 52.0078V50.8184C28.875 50.5029 28.7367 50.2004 28.4906 49.9773C28.2444 49.7542 27.9106 49.6289 27.5625 49.6289C27.2144 49.6289 26.8806 49.7542 26.6344 49.9773C26.3883 50.2004 26.25 50.5029 26.25 50.8184V52.0078C26.25 52.3233 26.3883 52.6258 26.6344 52.8489C26.8806 53.0719 27.2144 53.1973 27.5625 53.1973C27.9106 53.1973 28.2444 53.0719 28.4906 52.8489C28.7367 52.6258 28.875 52.3233 28.875 52.0078Z" fill="#29C3BE"/>
<path d="M35.4375 49.6289C35.0894 49.6289 34.7556 49.7542 34.5094 49.9773C34.2633 50.2004 34.125 50.5029 34.125 50.8184V52.0078C34.125 52.3233 34.2633 52.6258 34.5094 52.8489C34.7556 53.0719 35.0894 53.1973 35.4375 53.1973C35.7856 53.1973 36.1194 53.0719 36.3656 52.8489C36.6117 52.6258 36.75 52.3233 36.75 52.0078V50.8184C36.75 50.5029 36.6117 50.2004 36.3656 49.9773C36.1194 49.7542 35.7856 49.6289 35.4375 49.6289Z" fill="#29C3BE"/>
<path d="M34.125 54.3867H32.8125V53.1973C32.8125 52.8818 32.6742 52.5793 32.4281 52.3562C32.1819 52.1331 31.8481 52.0078 31.5 52.0078C31.1519 52.0078 30.8181 52.1331 30.5719 52.3562C30.3258 52.5793 30.1875 52.8818 30.1875 53.1973V54.3867H28.875C28.5269 54.3867 28.1931 54.512 27.9469 54.7351C27.7008 54.9582 27.5625 55.2607 27.5625 55.5762C27.5625 55.8916 27.7008 56.1942 27.9469 56.4172C28.1931 56.6403 28.5269 56.7656 28.875 56.7656H34.125C34.4731 56.7656 34.8069 56.6403 35.0531 56.4172C35.2992 56.1942 35.4375 55.8916 35.4375 55.5762C35.4375 55.2607 35.2992 54.9582 35.0531 54.7351C34.8069 54.512 34.4731 54.3867 34.125 54.3867Z" fill="#29C3BE"/>
<path d="M20.6719 41.3438H18.7031C18.181 41.3438 17.6802 41.1363 17.311 40.7671C16.9418 40.3979 16.7344 39.8971 16.7344 39.375C16.7344 38.5918 17.0455 37.8406 17.5993 37.2868C18.1531 36.733 18.9043 36.4219 19.6875 36.4219C20.4707 36.4219 21.2219 36.733 21.7757 37.2868C22.3295 37.8406 22.6406 38.5918 22.6406 39.375C22.6406 39.8971 22.4332 40.3979 22.064 40.7671C21.6948 41.1363 21.194 41.3438 20.6719 41.3438Z" fill="#F3AF3E"/>
<path d="M44.2969 41.3438H42.3281C41.806 41.3438 41.3052 41.1363 40.936 40.7671C40.5668 40.3979 40.3594 39.8971 40.3594 39.375C40.3594 38.5918 40.6705 37.8406 41.2243 37.2868C41.7781 36.733 42.5293 36.4219 43.3125 36.4219C44.0957 36.4219 44.8469 36.733 45.4007 37.2868C45.9545 37.8406 46.2656 38.5918 46.2656 39.375C46.2656 39.8971 46.0582 40.3979 45.689 40.7671C45.3198 41.1363 44.819 41.3438 44.2969 41.3438Z" fill="#F3AF3E"/>
<path d="M31.5 32.4844C30.9779 32.4844 30.4771 32.277 30.1079 31.9077C29.7387 31.5385 29.5312 31.0378 29.5312 30.5156V28.5469H33.4688V30.5156C33.4688 31.0378 33.2613 31.5385 32.8921 31.9077C32.5229 32.277 32.0221 32.4844 31.5 32.4844Z" fill="#5B3726"/>
<path d="M4.92188 44.2969H58.0781V46.2656H4.92188V44.2969Z" fill="#50559F"/>
<path d="M34.4497 5.91797L37.7139 3.71691L43.2166 11.8774L39.9524 14.0784L34.4497 5.91797Z" fill="#B9B9B9"/>
</svg>

<svg width="63" height="63" fill="none" xmlns="http://www.w3.org/2000/svg">
  <path d="M27.563 21.656l-5.907 5.907a7.121 7.121 0 01-3.937-6.371v-2.489h5.906l3.938 2.953z" fill="#F3AF3E"/>
  <path d="M25.594 24.61l-2.461 1.476-1.989 1.192a7.121 7.121 0 01-3.41-5.622h4.996l2.379 2.454.485.5z" fill="#5B3726"/>
  <path d="M45.281 18.703v2.488a7.129 7.129 0 01-3.937 6.371l-5.907-5.906 3.938-2.953h5.906z" fill="#F3AF3E"/>
  <path d="M45.267 21.656a7.123 7.123 0 01-3.025 5.371l-2.867-1.433-1.969-.985.485-.5 2.379-2.453h4.996z" fill="#5B3726"/>
  <path d="M42.328 29.531v12.797H20.672V29.531a10.828 10.828 0 0121.656 0z" fill="#F3AF3E"/>
  <path d="M44.297 3.938l-.984 3.937 10.828 6.89v26.579h3.937V12.797L45.281 4.266l-.984-.329z" fill="#B9B9B9"/>
  <path d="M58.078 44.297v5.906a9.844 9.844 0 01-9.844 9.844H14.766a9.844 9.844 0 01-9.844-9.844v-5.906h53.156z" fill="#5D62B5"/>
  <path d="M58.078 40.36H4.922a1.969 1.969 0 100 3.937h53.156a1.969 1.969 0 000-3.938z" fill="#5D62B5"/>
  <path d="M42.671 11.057l-4.403-6.529 2.76-1.26a3.486 3.486 0 013.846 5.702l-2.203 2.087z" fill="#CBCBCB"/>
  <path d="M26.269 25.66l2.954-.984.622 1.868-2.954.984-.622-1.869zM33.157 26.512l.622-1.869 2.954.984-.622 1.868-2.954-.983z" fill="#D18D28"/>
  <path d="M37.63 33.26l-.88-1.76c-.78.387-3.43 2.537-4.265 2.288V31.5h-1.97v2.289c-.834.249-3.485-1.902-4.265-2.289l-.88 1.76c.675.337 3.167 2.601 3.921 2.634a5.402 5.402 0 002.21-.367c.702.275 1.455.4 2.209.367.754-.033 3.245-2.297 3.92-2.633z" fill="#744630"/>
  <path d="M23.625 39.375c0 .346-.09.685-.263.984h-2.69v-3.937a2.953 2.953 0 012.953 2.953zM42.328 36.422v3.937h-2.69a1.959 1.959 0 01-.263-.984 2.953 2.953 0 012.953-2.953z" fill="#D18D28"/>
  <path d="M28.547 16.735h-1.969a9.65 9.65 0 01.576-3.288l1.851.669a7.686 7.686 0 00-.458 2.619zM29.901 12.37l-1.623-1.115a9.612 9.612 0 012.998-2.819l.702-.42 1.013 1.688-.702.42a7.655 7.655 0 00-2.388 2.246zM33.469 16.735H31.5a9.65 9.65 0 01.575-3.288l1.852.669a7.686 7.686 0 00-.458 2.619zM34.823 12.37L33.2 11.255a9.612 9.612 0 012.998-2.819l.702-.42 1.013 1.688-.702.42a7.655 7.655 0 00-2.388 2.246zM38.39 16.735h-1.968c0-1.121.194-2.234.575-3.288l1.852.669a7.681 7.681 0 00-.458 2.619z" fill="#C0F5F9"/>
  <path d="M9.844 36.422a3.937 3.937 0 100-7.875 3.937 3.937 0 000 7.875z" fill="#B3E4E8"/>
  <path d="M5.906 25.594a2.953 2.953 0 100-5.907 2.953 2.953 0 000 5.907zM48.234 33.469a1.969 1.969 0 100-3.938 1.969 1.969 0 000 3.938z" fill="#C0F5F9"/>
  <path d="M31.5 50.818c.348 0 .682-.125.928-.348.246-.223.385-.526.385-.841v-1.19c0-.315-.139-.618-.385-.84a1.384 1.384 0 00-.928-.349c-.348 0-.682.125-.928.348a1.136 1.136 0 00-.384.842v1.189c0 .315.138.618.384.841.246.223.58.348.928.348zM28.875 52.008v-1.19c0-.315-.138-.618-.384-.84a1.384 1.384 0 00-.928-.35c-.349 0-.682.126-.929.35a1.136 1.136 0 00-.384.84v1.19c0 .315.138.618.384.84.247.224.58.35.928.35.349 0 .682-.126.929-.35.246-.222.384-.525.384-.84zM35.438 49.629c-.349 0-.682.125-.929.348a1.136 1.136 0 00-.384.841v1.19c0 .315.138.618.384.84.247.224.58.35.928.35.349 0 .682-.126.929-.35.246-.222.384-.525.384-.84v-1.19c0-.315-.138-.618-.384-.84a1.384 1.384 0 00-.928-.35zM34.125 54.387h-1.313v-1.19c0-.315-.138-.618-.384-.84a1.384 1.384 0 00-.928-.35c-.348 0-.682.126-.928.35a1.136 1.136 0 00-.384.84v1.19h-1.313c-.348 0-.682.125-.928.348a1.136 1.136 0 00-.384.841c0 .316.138.618.384.841.246.223.58.349.928.349h5.25c.348 0 .682-.126.928-.349.246-.223.385-.525.385-.84 0-.316-.139-.619-.385-.842a1.384 1.384 0 00-.928-.348z" fill="#29C3BE"/>
  <path d="M20.672 41.344h-1.969a1.969 1.969 0 01-1.969-1.969 2.953 2.953 0 115.907 0 1.969 1.969 0 01-1.97 1.969zM44.297 41.344h-1.969a1.969 1.969 0 01-1.969-1.969 2.953 2.953 0 115.907 0 1.969 1.969 0 01-1.97 1.969z" fill="#F3AF3E"/>
  <path d="M31.5 32.484a1.968 1.968 0 01-1.969-1.968v-1.97h3.938v1.97a1.969 1.969 0 01-1.969 1.968z" fill="#5B3726"/>
  <path d="M4.922 44.297h53.156v1.969H4.922v-1.97z" fill="#50559F"/>
  <path d="M34.45 5.918l3.264-2.201 5.503 8.16-3.265 2.201-5.502-8.16z" fill="#B9B9B9"/>
</svg>
